X:243
T:The Sno
R:reel
C:Bruce Osborne - Dec. 2002
Z:abc by bosborne@kos.net
M:2/4
L:1/8
K:Gmaj
G/A/|BB c/B/c/e/|d/B/G/A/ B/d/c/B/|A/G/A/B/ c/A/F/A/|e/d/d/c/ B/c/B/A/|\
BB c/B/c/e/|d/B/G/A/ B/d/c/B/|A/G/A/B/ c/A/F/A/|G/F/B/A/ G:|
|:B/c/|d/B/G/B/ c/A/F/A/|G/F/G/B/ d/g/f/e/|d/B/G/B/ d/B/G/B/|A/G/A/B/ AB/c/|\
d/B/G/B/ c/A/F/A/|G/F/G/B/ d/g/f/e/|d/B/G/B/ c/A/F/A/|G/F/B/A/ G:|
